!!!COM: Bach, Johann Sebastian
!!!OTL: Jesu, meiner Seelen Wonne
!!!ONM: No. 350
!!!OCL: Erk
!!!YOE: Riemenschneider, Albert
!!!OPR: 371 Harmonized Chorales and 69 Chorale Melodies with Figured Bass
!!!OPT: Bach Chorale Harmonizations
**kern	**kern	**kern	**kern
! bass	! tenor	! alto	! soprano
*M4/4	*M4/4	*M4/4	*M4/4
*B-:	*B-:	*B-:	*B-:
=1	=1	=1	=1
4B-	4f	4b-	4dd
4G	8B-	4b-	4ee-
.	8c	.	.
4D	4d	4a	4ff
4G	4d	8b-	4ff
.	.	8a	.
=2	=2	=2	=2
4C	4e-	8g	4ee-
.	.	8a-	.
4BB-	4f	4b-	4dd
4F	4f	4a	4cc
4F;	4f;	4a;	4cc;
=3	=3	=3	=3
4BB-	4f	4b-	4dd
4C	4e-	8a	4ee-
.	.	8g	.
4D	8d	4f	4ff
.	8c	.	.
8G	4B-	4g	4dd
8F	.	.	.
=4	=4	=4	=4
4E-	4B-	4g	4.cc
4F	4A	4f	.
.	.	.	8cc
2BB-;	2d;	2f;	2b-;
!! Repeat from the beginning.
=1	=1	=1	=1
4B-	4f	4b-	4dd
4G	8B-	4b-	4ee-
.	8c	.	.
4D	4d	4a	4ff
4G	4d	8b-	4ff
.	.	8a	.
=2	=2	=2	=2
4C	4e-	8g	4ee-
.	.	8a-	.
4BB-	4f	4b-	4dd
4F	4f	4a	4cc
4F;	4f;	4a;	4cc;
=3	=3	=3	=3
4BB-	4f	4b-	4dd
4C	4e-	8a	4ee-
.	.	8g	.
4D	8d	4f	4ff
.	8c	.	.
8G	4B-	4g	4dd
8F	.	.	.
=4	=4	=4	=4
4E-	4B-	4g	4.cc
4F	4A	4f	.
.	.	.	8cc
2BB-;	2d;	2f;	2b-;
!! Continuing.
=5	=5	=5	=5
4F	4f	4a	4cc
4D	4F	4bn	4dd
8C	4G	4cc	4ee-
8D	.	.	.
8E-	4c	4g	4ee-
8F	.	.	.
=6	=6	=6	=6
4G	8c	4g	4.dd
.	8A	.	.
4GG	4Bn	8f	.
.	.	8e-	8cc
2C;	2G;	2e-;	2cc;
=7	=7	=7	=7
4c	4c	4g	4ee-
8B-	4d	4b-	4ff
8A-	.	.	.
8G	4e-	4b-	4gg
8F	.	.	.
4E-	4e-	4b-	4gg
=8	=8	=8	=8
4B-	8e-	4b-	4ff
.	8c	.	.
4BB-	4d	8b-	8.ff
.	.	8a-	.
.	.	.	16ee-
2E-;	2B-;	2g;	2ee-;
=9	=9	=9	=9
4G	4B-	4g	4dd
8F	4B-	4g	4ee-
8E-	.	.	.
4D	8B-	4f	4ff
.	8A-	.	.
4E-	4G	4e-	4b-
=10	=10	=10	=10
4AAn	4c	4f	4ee-
4BB-	4B-	4f	4dd
4F	4An	4f	4cc
4F;	4A;	4f;	4cc;
=11	=11	=11	=11
4B-	4B-	4f	4dd
8A	4B-	4g	4ee-
8G	.	.	.
8A-	4c	4f	4ff
8F	.	.	.
4B-	4B-	4f	4dd
=12	=12	=12	=12
4E-	4B-	4g	4cc
4F	4A	4f	4cc
4BB-	4d	4f	4b-
4BB-;	4d;	4f;	4b-;
==	==	==	==
*-	*-	*-	*-
!!!CDT: 1685/3//-1750/7/28
!!!OCY: Deutschland
!!!AGN: chorale
!!!AST: Baroque
!!!AIN: vox
!!!YOY: 1941
!!!PPP: New York; London
!!!PPR: G. Schirmer
!!!ENC: David Huron
!!!EED: David Huron
!!!YEN: United States of America
!!!YER: 1992
!!!YEC: Copyright 1992 David Huron
!!!YEM: Rights to all derivative electronic formats reserved.
!!!YER: March 20, 1996
!!!AMT: simple quadruple
!!!EEV: 1.1
